**kern	**kern	**dynam
*part1	*part1	*part1
*staff2	*staff1	*
*I"Piano	*	*
*clefF4	*clefG2	*
*k[f#c#]	*k[f#c#]	*
=1	=1	=1
8GGG 8GG	12B'L	.
.	12e'	.
8r	.	.
.	12c#'J	.
8GG 8C# 8G	8e 8b	.
!	!LO:TX:b:i:t=cédez	!
8r	8r	.
=	=	=
(12FFF#L	4c# 4f# 4a#X	.
12AAA#X	.	.
12CC#J	.	.
12FF#L	(12F#L	.
12AA#X	12A#X	.
12C#J	12c#J	.
=	=	=
!	!LO:TX:b:i:t=cresc.	!
12F#L	12f#L	.
12A#X	12a#X	.
12c#J	12cc#J	.
*clefG2	*	*
12f#L	12ff#L	.
12a#X	12aa#X	.
12cc#J	12ccc#J	.
=	=	=
8ff#)	8fff#)	.
!	!LO:TX:b:i:t=attendez	!
8r	8r	.
4r	4r	.
*clefF4	*	*
=	=	=
!	!LO:TX:a:i:t=dim.	!
[2E [2G	[2B-X [2d [2g [2b-X	f
=	=	=
8E] 8G]	8B-] 8d] 8g] 8b-]	.
8r	8r	.
4E 4G	4B-X 4d 4g 4b-X	pp
=	=	=
[2AA [2D [2F#	[2A [2d [2f# [2a	.
=	=	=
*-	*-	*-
!!!system-decoration: {(s1,s2)}
